X: 1
T: Blue-Eyed Rascal, The
M: 4/4
L: 1/8
R: hornpipe
K: Gmaj
(3DEF|GF GA (3Bcd gf|(3efg ce dB (3cBA|GF GA (3Bcd  BG| Ad (3^cde dB (3=cBA|
GF GA (3Bcd gf|(3efg ce d2 (3def|(3gdB (3GBd (3ceg (3c'ge|f/g/a/f/ (3dfa g2:|
|:B2|~e2 (3^def e2B2|~e2 (3^def e2B2|~d2 (3^cde d2 A2|~d2 (3^cde dB (3=cBA|
GF GA (3Bcd gf|(3efg ce dB (3cBA|GF GA (3Bcd  BG| Ad (3^cde dB (3=cBA|
GF GA (3Bcd gf|(3efg ce d2 (3def|(3gdB (3GBd (3ceg (3c'ge|f/g/a/f/ (3dfa g2:|
